X:348
T:Irvine Steeple
R:Reel
B:The Athole Collection
M:C|
L:1/8
K:D
f|d/d/d d>A F>GA>=c|B>G=c>G E>CG>E|D<d d>A F>GA>g|f>de>c dDD:|
f|d>ef>g a>ba>f|g>e=c>g ecge|d>ef>g a>ba>g|f>de>c dDDf|d>ef>g a>ba>f|
ge =c>g e>cg>e|f>dg>e a>fb>g|f>de>c dDD||

